src/assets/images/account-icon.svg

<svg fill="none" height="12" viewBox="0 0 12 12" width="12" xmlns="http://www.w3.org/2000/svg" xmlns:xlink="http://www.w3.org/1999/xlink"><clipPath id="a"><path d="m0 0h12v12h-12z"/></clipPath><g clip-path="url(#a)" opacity=".3"><path d="m6 11c-2.7615 0-5-2.2385-5-5s2.2385-5 5-5 5 2.2385 5 5-2.2385 5-5 5zm0-1c1.06087 0 2.07828-.42143 2.82843-1.17157.75014-.75015 1.17157-1.76756 1.17157-2.82843s-.42143-2.07828-1.17157-2.82843c-.75015-.75014-1.76756-1.17157-2.82843-1.17157s-2.07828.42143-2.82843 1.17157c-.75014.75015-1.17157 1.76756-1.17157 2.82843s.42143 2.07828 1.17157 2.82843c.75015.75014 1.76756 1.17157 2.82843 1.17157zm-2.5-4h1c0 .39782.15804.77936.43934 1.06066s.66284.43934 1.06066.43934.77936-.15804 1.06066-.43934.43934-.66284.43934-1.06066h1c0 .66304-.26339 1.29893-.73223 1.76777s-1.10473.73223-1.76777.73223-1.29893-.26339-1.76777-.73223-.73223-1.10473-.73223-1.76777z" fill="#fff"/></g></svg>

<svg width="12" height="12" viewBox="0 0 12 12" fill="none" xmlns="http://www.w3.org/2000/svg">
<g opacity="0.3" clip-path="url(#clip0_4776_10684)">
<path d="M6 11C3.2385 11 1 8.7615 1 6C1 3.2385 3.2385 1 6 1C8.7615 1 11 3.2385 11 6C11 8.7615 8.7615 11 6 11ZM6 10C7.06087 10 8.07828 9.57857 8.82843 8.82843C9.57857 8.07828 10 7.06087 10 6C10 4.93913 9.57857 3.92172 8.82843 3.17157C8.07828 2.42143 7.06087 2 6 2C4.93913 2 3.92172 2.42143 3.17157 3.17157C2.42143 3.92172 2 4.93913 2 6C2 7.06087 2.42143 8.07828 3.17157 8.82843C3.92172 9.57857 4.93913 10 6 10ZM3.5 6H4.5C4.5 6.39782 4.65804 6.77936 4.93934 7.06066C5.22064 7.34196 5.60218 7.5 6 7.5C6.39782 7.5 6.77936 7.34196 7.06066 7.06066C7.34196 6.77936 7.5 6.39782 7.5 6H8.5C8.5 6.66304 8.23661 7.29893 7.76777 7.76777C7.29893 8.23661 6.66304 8.5 6 8.5C5.33696 8.5 4.70107 8.23661 4.23223 7.76777C3.76339 7.29893 3.5 6.66304 3.5 6Z" fill="white"/>
</g>
<defs>
<clipPath id="clip0_4776_10684">
<rect width="12" height="12" fill="white"/>
</clipPath>
</defs>
</svg>
